X: 41352
T: Turnpike Side
R: jig
M: 6/8
K: Dmajor
|:d2 d cBA|B2 B AGF|G2 e Fdd|E2 d cAc|
dAd c2 A|BdB A2 F|G2 e F2 d|cA/B/c d3:|
|:d2 f a2 b|afd a2 f|A2 c e2 f|ecA ecA|
d2 f a2 b|afd a2 f|gbg f2 a|e2 c d3:|

